!!!COM: Palestrina, Giovanni Perluigi da
!!!OPR: Missa In duplicibus minoribus (I)
!!!OMD: Credo
!!!OTL: First Section
**kern	**kern	**kern	**kern	**kern
*Ibass	*Itenor	*Itenor	*Icalto	*Icant
!Bassus	!Tenor 2	!Tenor 1	!Altus	!Cantus
*clefF4	*clefGv2	*clefGv2	*clefG2	*clefG2
*k[]	*k[]	*k[]	*k[]	*k[]
*E:phr	*E:phr	*E:phr	*E:phr	*E:phr
*M4/2	*M4/2	*M4/2	*M4/2	*M4/2
=1	=1	=1	=1	=1
0r	0r	0r	1B	0r
.	.	.	2d	.
.	.	.	2d	.
=2	=2	=2	=2	=2
1E	0r	0r	1e	0r
2G	.	.	2B	.
2G	.	.	[2d	.
=3	=3	=3	=3	=3
1A	1r	0r	4d]	1e
.	.	.	4c	.
.	.	.	2c	.
1E	1e	.	1B	2g
.	.	.	.	2g
=4	=4	=4	=4	=4
1.A	2c	0r	1A	1a
.	2c	.	.	.
.	1B	.	2r	1e
2G	.	.	2B	.
=5	=5	=5	=5	=5
1.F	2.A	2r	2c	1.a
.	.	2A	2c	.
.	4G	.	.	.
.	2F	2c	2A	.
2E	2G	2c	2e	2g
=6	=6	=6	=6	=6
0D	2A	1d	2r	0f
.	2.d	.	2A	.
.	.	2A	2.d	.
.	4c	.	.	.
.	4B	[2d	.	.
.	4A	.	4c	.
=7	=7	=7	=7	=7
0E	2G	2d]	2B	1e
.	1A	2c	2A	.
.	.	1B	2B	2r
.	2G#	.	2E	[2e
=8	=8	=8	=8	=8
0r	1A	2c	2r	2e]
.	.	2A	2c	2f
.	1r	2B	2d	2.g
.	.	[2c	[2e	.
.	.	.	.	4g
=9	=9	=9	=9	=9
0r	0r	4c]	4e]	2a
.	.	4c	4e	.
.	.	2B	2d	1g
.	.	2c	2e	.
.	.	2d	2d	2f
=10	=10	=10	=10	=10
1r	2r	1A	4c	0e
.	.	.	4d	.
.	2A	.	4e	.
.	.	.	4f	.
1E	2B	2r	1g	.
.	[2c	2G	.	.
=11	=11	=11	=11	=11
2F	4c]	2A	0r	0r
.	4c	.	.	.
2.G	2e	2.B	.	.
.	2d	.	.	.
4G	.	4B	.	.
2A	2c	2c	.	.
=12	=12	=12	=12	=12
2G	2B	2d	0r	1r
2F	1A	2d	.	.
1E	.	[1e	.	1b
.	2G#	.	.	.
=13	=13	=13	=13	=13
0r	1A	1e]	2r	1cc
.	.	.	1e	.
.	2r	1r	.	2b
.	[2A	.	2f	2a
=14	=14	=14	=14	=14
0r	2A]	0r	2e	2cc
.	2B	.	2d	2dd
.	2A	.	2e	4cc
.	.	.	.	4b
.	2D	.	[2f	4a
.	.	.	.	4g
=15	=15	=15	=15	=15
0r	2F	1r	2f]	2.a
.	2C	.	1e	.
.	.	.	.	4g
.	1D	1A	.	1f
.	.	.	2d	.
=16	=16	=16	=16	=16
1r	2r	1c	0e	1e
.	1A	.	.	.
1E	.	1B	.	2r
.	2G	.	.	2e
=17	=17	=17	=17	=17
1F	2c	1A	0r	2a
.	2d	.	.	2a
2E	2e	4B	.	2g
.	.	4c	.	.
2D	[2A	4d	.	[2f
.	.	4A	.	.
=18	=18	=18	=18	=18
1E	4A]	2c	0r	4f]
.	4G#	.	.	4e
.	2G#	2.B	.	1e
2.F	1A	.	.	.
.	.	4A	.	.
.	.	[2A	.	2d
4F	.	.	.	.
=19	=19	=19	=19	=19
1E	2r	2A]	1B	[0e
.	2E	2G#	.	.
2r	4A	1A	1c	.
.	4B	.	.	.
2A	4c	.	.	.
.	4d	.	.	.
=20	=20	=20	=20	=20
2G#	2e	2E	2B	1e_
2A	2c	2A	2A	.
1E	2B	2G#	1B	1e_
.	[2e	2G#	.	.
=21	=21	=21	=21	=21
1.AA	4e]	1A	1.c	0e]
.	4d	.	.	.
.	4c	.	.	.
.	4B	.	.	.
.	2A	1E	.	.
2AA	2A	.	2c	.
=22	=22	=22	=22	=22
[0E	[0G#	[0E	[0B	[0e
=23	=23	=23	=23	=23
0E]	0G#]	0E]	0B]	0e]
*-	*-	*-	*-	*-
!!!CDT: 1525/^1526/-1594/2/2
!!!OCY: Italia
!!!AGN: Mass (Paraphrase)
!!!AST: renaissance, vocal
!!!ASW: Gregorian Mass
!!!PWK: Masses, Book Mantuan I
!!!RNB: Cadence finals: A
!!!YOR: Le Opere Complete, v. 18, p. 42
!!!YOO: Rome, Italy: Fratelli Scalera
!!!END: 1992//
!!!EED: John Miller
!!!YEC: Copyright 2000, John Miller
!!!YEN: United States of America
!!!YEM: Rights to all derivative electronic formats reserved.
!!!YEM: Refer to licensing agreement for further details.
!!!YEM: This file must be accompanied by the licensing agreement.
!!!YEM: A copy of the licensing agreement may be found at http://www.music-cog.ohio-state.edu/HumdrumDatabases/Palestrina/license.txt
!!!EMD: converted to Humdrum by Bret Aarden
